X:1
T:Tradiderunt me
T:Victoria
T:Tradiderunt me
T:Copyright © 2015 by CPDL.  This edition can be fully distributed, duplicated, performed, and recorded. 
T:Copyright © 2015 by CPDL.  This edition can be fully distributed, duplicated, performed, and recorded. 
T:Copyright © 2015 by CPDL.  This edition can be fully distributed, duplicated, performed, and recorded. 
T:Copyright © 2015 by CPDL.  This edition can be fully distributed, duplicated, performed, and recorded. 
T:Copyright © 2015 by CPDL.  This edition can be fully distributed, duplicated, performed, and recorded. 
C:Victoria
Z:Copyright © 2015 by CPDL.  This edition can be fully distributed, duplicated, performed, and recorded.
Z:
%%score [ 1 2 3 4 ]
L:1/8
Q:1/2=88
M:4/2
K:G
V:1 treble nm="Soprano" snm="S."
V:2 treble nm="Alto" snm="A."
V:3 treble-8 transpose=-12 nm="Tenor" snm="T."
V:4 bass nm="Bass" snm="B."
V:1
"^Good Friday Tenebrae: They delivered me into the hands of the wickedand cast me among evildoers.and did not spare my soul:Strong men gathered together against me;And, like giants, stood against me.Vs:  Foreigners rose against meand strong men sought my soul." z16 | %1
w: |
 z16 | z16 | z8 z4 B4 | c4 B4 A4 G4 | (F4 E8 ^D4) | E8 z8 | z16 | z16 | z16 | z4 E4 G8 | %11
w: ||in|ma- nus im- pi-|o- * *|rum||||et non|
 F4 G4 A4 G4- | G2 F2 E4 ^D4 F4 | F4 G4 F8 | G4 E4 E4 ^D4 | (E2 F2 G2 E2 F8) | E4 B4 B4 B4- | %17
w: per- pe- ce- *|* * * runt a-|ni- mae me-|ae, a- ni- nae|me- * * * *|ae: con- gre- ga-|
 B4 B4 B8- | B8 z8 | z16 | z4 F4 B4 B4 | ^A4 B6 ^c2 d4- | d4 ^c2 B2 A4 B4- | B2 A2 G4 F8 | ^G16 || %25
w: * ti sunt|_||ad- ver- sum|me for- * *|||tes:|
S z16 | z16 | z8 z4 E4 | B4 ^c4 (d6 c2 | B4) ^A4 B8 | z4 F4 G8- | G4 A4 (B6 A2 | G8) F8 | %33
w: ||ste-|te- runt con- *|* tra me,|ste- te-|* runt con- *|* tra|
 ^G16!fine! |] B16 | ^c8 d8 | B4 E4 G4 G4 | F8 E4 A4 | B6 ^c2 d4 c4- | c2 B2 B8 ^A4 | B8 z4 E4 | %41
w: me.|A-|li- e-|ni in- sur- re-|xe- runt ad-|ver- * * *|* * * sum|me et|
 B6 B2 B4 B4 | B8 E4 A4 | A4 G4 F8!D.S.! | E16 |] %45
w: for- tes quae- si-|e- runt a-|ni- mam me-|am.|
V:2
 B,16 | ^C8 D8- | D4 E4 F4 E4 | G4 F4 E4 ^D4 | (E6 =D2 C4 B,4 | C8) A,8 | z4 B,8 ^C4- | %7
w: Tra-|di- de-|* runt me in|ma- nus im- pi-|o- * * *|* rum,|et in-|
 C4 D4 E4 F4- | F4 B,4 F8 | D4 E8 ^D4 | E8 z4 B,4 | D8 ^C4 D4 | E8 F8 | z4 E4 E4 ^D4 | %14
w: * ter in- i-|* quos pro-|ie- ce- runt|me, et|non per- pe-|ce- runt|a- ni- mae|
 (E2 F2 G2 E2 F8) | G4 (E8 ^D4) | E4 G8 F4 | F4 F4 E8 | z4 B,4 B,4 ^C4 | D4 B,6 ^A,2 A,4 | %20
w: me- * * * *|ae, me- *|ae: con- gre-|ga- ti sunt|ad- ver- sum|me for- * *|
 B,4 B,4 D4 E4 | F4 G8 F2 E2 | D4 E4 F2 E2 D2 ^C2 | D4 E8 ^D4 | E16 || B,16 | E8 F4 G4 | A8 G8 | %28
w: tes, ad- ver- sum|me for- * *|||tes.|Et|si- cut gi-|gan- tes|
 z4 E4 F4 F4 | (G4 F2 E2 D4 E4-) | E4 ^D4 E4 B,4 | E4 F4 G6 F2 | E2 B,2 E8 ^D4 | E16 |] z8 E8- | %35
w: ste- te- runt|con- * * * *|* tra me, ste-|te- runt con- *|* * * tra|me.|A-|
 E8 F8 | G8 E4 B,4 | D4 D4 ^C8 | B,4 E4 F6 E2 | D4 ^C2 B,2 C4 C4 | B,4 F4 G6 G2 | G4 F4 G8 | %42
w: * li-|e- ni in-|sur- re- xe-|runt ad- ver- *|* * * * sum|me et for- tes|quae- si- e-|
 F4 G4 G4 F4 | (E12 ^D4) | E16 |] %45
w: runt a- ni- mam|me- *|am.|
V:3
 z8 E8- | E8 F8 | G8 A8 | B4 B4 =c4 B4 | A4 ^G4 A4 E4 | A6 =G2 F8 | E8 G8 | A8 B4 ^c4 | %8
w: Tra-|* di-|de- runt|me in ma- nus|im- pi- o- *||rum, et|in- ter in-|
 d8 ^c4 d4- | d4 ^c4 B4 A4 | B8 z4 E4 | B8 A4 B4 | =c8 B8 | z8 z4 B4 | B4 G4 (A4 B4) | E8 z8 | %16
w: i- quos pro-|* ie- ce- runt|me, et|non per- pe-|ce- runt|a-|ni- mae me- *|ae,|
 z4 e8 ^d4 | ^d4 d4 e4 B4 | e12 e4 | d8 ^c8 | B4 d4 d4 B4 | ^c4 e8 d2 c2 | B4 ^c4 d2 c2 B2 A2 | %23
w: con- gre-|ga- ti sunt ad-|ver- sum|me for-|tes, ad- ver- sum|me for- * *||
 G6 A2 B8 | B16 || z8 E8- | E8 B8 | ^c4 d4 e8- | e8 B8 | z8 z4 E4 | A8 B8 | (c8 B8) | B16 | B16 |] %34
w: |tes.|Et|_ si-|cut gi- gan-|* tes|ste-|te- runt|con- *|tra|me.|
 z16 | z16 | z16 | z4 F4 A4 A4 | G8 F4 F4 | G8 F8 | B4 B4 e6 e2 | e4 ^d4 e8 | B4 e4 e4 =d4 | %43
w: |||in- sur- re-|xe- runt ad-|ver- sum|me et for- tes|quae- si- e-|runt a- ni- mam|
 (c6 B2 A4 B4) | E16 |] %45
w: me- * * *|am.|
V:4
 z16 | z16 | z16 | z16 | z16 | z16 | z8 E,8 | F,8 G,4 A,4 | B,8 F,4 B,4- | B,4 A,4 G,4 F,4 | E,16 | %11
w: ||||||et|in- ter in-|i- quos pro-|* ie- ce- runt|me,|
 z16 | z8 z4 B,4 | B,4 G,4 (A,4 B,4) | E,8 z4 B,4 | B,4 G,4 (A,4 B,4) | E,8 B,6 B,2 | B,4 B,4 E,8 | %18
w: |a-|ni- mae me- *|ae, a-|ni- mae me- *|ae, con- gre-|ga- ti sunt|
 z4 E,4 G,4 A,4 | B,8 F,8 | B,,4 B,4 G,4 G,4 | F,4 E,2 F,2 G,2 A,2 B,4- | B,4 A,2 G,2 F,4 G,4- | %23
w: ad- ver- sum|me for-|tes, ad- ver- sum|me for- * * * *||
 G,2 F,2 E,4 B,,8 | E,16 || z16 | z16 | z16 | z8 z4 B,,4 | E,4 F,4 G,8 | F,8 E,4 E,4 | %31
w: |tes.||||ste-|te- runt con-|tra me, ste-|
 C,4 A,,4 E,8- | E,8 B,,8 | E,16 |] z16 | z16 | z16 | z16 | z16 | z16 | z16 | z16 | z16 | z16 | %44
w: te- runt con-|* tra|me.|||||||||||
 z16 |] %45
w: |

